src/assets/svg/trustedcompanies/infinion.svg

<svg width="34" height="24" viewBox="0 0 34 24" fill="none" xmlns="http://www.w3.org/2000/svg">
<g style="mix-blend-mode:luminosity">
<path d="M0 10.2036V13.8211H0.629941V10.2036H0ZM2.13307 10.9583C2.13307 10.8273 2.20791 10.7525 2.35136 10.7525C2.46363 10.7525 2.526 10.8023 2.5759 10.9084L3.62996 13.2161C3.77964 13.6277 4.01041 13.8834 4.51561 13.8834C5.07071 13.8834 5.34514 13.5653 5.34514 13.0913V10.2036H4.70896V13.0664C4.70896 13.1911 4.62788 13.2722 4.4969 13.2722C4.3784 13.2722 4.30979 13.2098 4.26613 13.1225L3.21207 10.8148C3.06238 10.4032 2.83785 10.1475 2.33265 10.1475C1.77132 10.1475 1.50313 10.4655 1.50313 10.9333V13.8273H2.13307V10.9645V10.9583ZM7.51563 10.2036C6.55512 10.2036 6.1809 10.7275 6.1809 11.451V13.8211H6.81084V12.3928H8.98757V11.794H6.81084V11.451C6.81084 11.1142 6.97924 10.8398 7.55305 10.8398H9.01252V10.2098H7.51563V10.2036ZM9.7672 10.2036V13.8211H10.3971V10.2036H9.7672ZM11.9003 10.9583C11.9003 10.8273 11.9751 10.7525 12.1186 10.7525C12.2308 10.7525 12.2932 10.8023 12.3431 10.9084L13.3972 13.2161C13.5468 13.6277 13.7776 13.8834 14.2828 13.8834C14.8379 13.8834 15.1123 13.5653 15.1123 13.0913V10.2036H14.4762V13.0664C14.4762 13.1911 14.3951 13.2722 14.2641 13.2722C14.1456 13.2722 14.077 13.2098 14.0333 13.1225L12.9793 10.8148C12.8296 10.4032 12.6051 10.1475 12.0998 10.1475C11.5385 10.1475 11.2703 10.4655 11.2703 10.9333V13.8273H11.9003V10.9645V10.9583ZM15.9793 10.2036V13.8211H16.6092V10.2036H15.9793ZM18.9855 10.2036C17.9377 10.2036 17.3514 10.8023 17.3514 12.0186C17.3514 13.2285 17.9315 13.8211 18.9855 13.8211H19.4783C20.5323 13.8211 21.1124 13.2348 21.1124 12.0186C21.1124 10.8023 20.5261 10.2036 19.4783 10.2036H18.9855ZM19.4783 10.8335C20.1768 10.8335 20.4762 11.189 20.4762 12.0123C20.4762 12.8418 20.1768 13.1849 19.4783 13.1849H18.9855C18.287 13.1849 17.9814 12.8418 17.9814 12.0186C17.9814 11.189 18.287 10.8335 18.9855 10.8335H19.4783ZM22.4845 10.9583C22.4845 10.8273 22.5594 10.7525 22.7028 10.7525C22.8151 10.7525 22.8774 10.8023 22.9273 10.9084L23.9814 13.2161C24.1311 13.6277 24.3619 13.8834 24.8671 13.8834C25.4222 13.8834 25.6966 13.5653 25.6966 13.0913V10.2036H25.0604V13.0664C25.0604 13.1911 24.9793 13.2722 24.8484 13.2722C24.7298 13.2722 24.6612 13.2098 24.6176 13.1225L23.5635 10.8148C23.4138 10.4032 23.1893 10.1475 22.6841 10.1475C22.1228 10.1475 21.8546 10.4655 21.8546 10.9333V13.8273H22.4845V10.9645V10.9583Z" fill="black"/>
<path fill-rule="evenodd" clip-rule="evenodd" d="M21.5429 23.2703C16.0419 23.2703 11.4639 19.3347 10.4722 14.1268H9.72998C10.7341 19.7401 15.6427 24 21.5429 24C28.1729 24 33.543 18.6237 33.543 12C33.543 5.37006 28.1667 0 21.5429 0C15.6489 0 10.7529 4.2474 9.73622 9.842H10.4784C11.4888 4.65281 16.0543 0.72973 21.5429 0.72973C27.7675 0.72973 32.8133 5.77547 32.8133 12C32.8133 18.2245 27.7675 23.2703 21.5429 23.2703Z" fill="#F26113"/>
</g>
</svg>

<svg xmlns="http://www.w3.org/2000/svg" width="34" height="24" fill="none" viewBox="0 0 34 24"><g style="mix-blend-mode:luminosity"><path fill="#000" d="M0 10.204v3.617h.63v-3.617zm2.133.754c0-.13.075-.206.218-.206.113 0 .175.05.225.156l1.054 2.308c.15.412.38.667.886.667.555 0 .83-.318.83-.792v-2.887h-.637v2.862c0 .125-.081.206-.212.206-.119 0-.187-.062-.23-.15l-1.055-2.307c-.15-.412-.374-.667-.88-.667-.56 0-.829.318-.829.785v2.894h.63zm5.383-.754c-.96 0-1.335.523-1.335 1.247v2.37h.63v-1.428h2.177v-.599H6.81v-.343c0-.337.168-.611.742-.611h1.46v-.63H7.516zm2.251 0v3.617h.63v-3.617zm2.133.754c0-.13.075-.206.219-.206.112 0 .174.05.224.156l1.054 2.308c.15.412.38.667.886.667.555 0 .83-.318.83-.792v-2.887h-.637v2.862c0 .125-.08.206-.212.206-.118 0-.187-.062-.23-.15l-1.055-2.307c-.15-.412-.374-.667-.88-.667-.56 0-.829.318-.829.785v2.894h.63zm4.08-.754v3.617h.63v-3.617zm3.005 0c-1.047 0-1.634.598-1.634 1.815 0 1.21.58 1.802 1.634 1.802h.493c1.054 0 1.634-.586 1.634-1.802s-.586-1.815-1.634-1.815zm.493.63c.699 0 .998.355.998 1.178 0 .83-.3 1.173-.998 1.173h-.493c-.698 0-1.004-.343-1.004-1.166 0-.83.306-1.185 1.004-1.185zm3.006.124c0-.13.075-.206.219-.206.112 0 .174.05.224.156l1.054 2.308c.15.412.38.667.886.667.555 0 .83-.318.83-.792v-2.887h-.637v2.862c0 .125-.08.206-.212.206-.118 0-.187-.062-.23-.15l-1.054-2.307c-.15-.412-.375-.667-.88-.667-.561 0-.83.318-.83.785v2.894h.63z"/><path fill="#f26113" fill-rule="evenodd" d="M21.543 23.27a11.27 11.27 0 0 1-11.07-9.143H9.73C10.734 19.74 15.643 24 21.543 24c6.63 0 12-5.376 12-12 0-6.63-5.376-12-12-12-5.894 0-10.79 4.247-11.807 9.842h.742C11.488 4.652 16.054.73 21.543.73c6.224 0 11.27 5.045 11.27 11.27s-5.046 11.27-11.27 11.27" clip-rule="evenodd"/></g></svg>
